!!!!SEGMENT: pl-kk--kk-i-1--005-005_anonim--missa-gaude-virgo-agnus-dei.krn
!!!cenid: 15xx:677
!!!COM: Anonim
!!!COM-rismID: pe30004985
!!!CDT:
!!!CNT:
!!!OPR: [Missa] Gaude virgo
!!!OTL: Agnus Dei
!!!OMV: 005
!!!PDT:
!!!AGN:
!!!SMS-siglum: PL-Kk
!!!SMS-shelfmark: Kk.I.1
!!!SMS-shelfwork: 005-005 M
!!!SMS-variant:
!!!SMS-altvar:
!!!NIFC-rismSourceID: 300257959
!!!NIFC-islandoraID: pl-kk:1
!!!URL-pdf-islandora: https://repozytorium.nifc.pl/islandora/object/pl-kk%3A1/datastream/PDF/view
!!!URL-scan: https://polish.musicsources.pl/pl/lokalizacje/galeria/rekopisy/5736 @EN{Scan on Polish Music Sources Website} @PL{Skany w portalu Dziedzictwo Muzyki Polskiej w otwartym dostępie}
!!!ONB-nifc: UWAGA: Cantus (s. 30v-41r, skan 0033-0043), Altus (s. 31v-42v, skan 0224-0235), Tenor (s. 31r-42r, skan 0419-0430), Bassus (s. 30v-40r, skan 0592-0601). Części Mszy: 1. Kyrie, 2. Et in terra, 3. Patrem, 4. Sanctus, 5. Agnus Dei
!!!AIN: 1 alto 1 bass 1 soprn 1 tenor
!!!key: F
**kern	**text	**kern	**text	**text	**kern	**text	**kern	**text
*part4	*part4	*part3	*part3	*part3	*part2	*part2	*part1	*part1
*staff4	*staff4	*staff3	*staff3	*staff3	*staff2	*staff2	*staff1	*staff1
*I"BASSVS	*	*I"TENOR	*	*	*I"ALTVS	*	*I"CANTVS	*
*I'B	*	*I'T	*	*	*I'A	*	*I'C	*
*Ibass	*	*Itenor	*	*	*Ialto	*	*Isoprn	*
*ICvox	*	*ICvox	*	*	*ICvox	*	*ICvox	*
*clefC4	*	*clefC2	*	*	*clefC2	*	*clefC2	*
*k[b-]	*	*k[b-]	*	*	*k[b-]	*	*k[b-]	*
*F:	*	*F:	*	*	*F:	*	*F:	*
*M2/1	*	*M2/1	*	*	*M2/1	*	*M2/1	*
*met(C|)	*	*met(C|)	*	*	*met(C|)	*	*met(C|)	*
=1-	=1-	=1-	=1-	=1-	=1-	=1-	=1-	=1-
*xywh-#600:5713,2101,4372,845	*	*xywh-#429:5801,2091,4295,903	*	*	*xywh-#233:5859,2098,4262,907	*	*xywh-#42:1255,1358,4245,916	*
1.B-	A-	1.d	A-	.	0f	A-	0r	.
!LO:TX:t=P:problem=kreska pseudotaktowa	!	!LO:TX:t=P:problem=kreska pseudotaktowa	!	!	!	!	!	!
2A/	-gnus	2c/	-gnus	.	.	.	.	.
=2-	=2-	=2-	=2-	=2-	=2-	=2-	=2-	=2-
1.G	.	2d/	.	.	1.g	-gnus	0B-	A-
.	.	2.e-X/	de-	.	.	.	.	.
.	.	4d/	.	.	.	.	.	.
!	!	!LO:TX:t=P:problem=kreska pseudotaktowa	!	!	!LO:TX:t=P:problem=kreska pseudotaktowa	!	!	!
2F/	de-	2d/	.	.	2a\	.	.	.
=3-	=3-	=3-	=3-	=3-	=3-	=3-	=3-	=3-
!LO:TX:t=P:problem=kreska pseudotaktowa	!	!	!	!	!	!	!LO:TX:t=P:problem=kreska pseudotaktowa	!
1E-X	-i	1.g	.	.	1.b-	de-	1G	-gnus
0D	.	.	.	.	.	.	0d	de-
.	.	4f\	.	.	4a\	-i	.	.
!	!	!LO:TX:t=P:problem=kreska pseudotaktowa	!	!	!LO:TX:t=P:problem=kreska pseudotaktowa	!	!	!
.	.	4eny/	.	.	4g\	.	.	.
=4-	=4-	=4-	=4-	=4-	=4-	=4-	=4-	=4-
.	.	1f	.	.	1a	.	.	.
*	*	*	*	*	*	*ij	*	*
!LO:TX:t=P:problem=kreska pseudotaktowa	!	!LO:TX:t=P:problem=kreska pseudotaktowa	!	!	!	!	!LO:TX:t=P:problem=kreska pseudotaktowa	!
1G	a-	1g	-i,	.	2.d/	A-	1B-	-i
!	!	!	!	!	!LO:TX:t=P:problem=kreska pseudotaktowa	!	!	!
.	.	.	.	.	4B-/	.	.	.
=5-	=5-	=5-	=5-	=5-	=5-	=5-	=5-	=5-
2F/	.	0r	.	.	2c/	.	1f	.
2D/	-gnus	.	.	.	2d/	.	.	.
2G/	.	.	.	.	2B-/	-gnus	2d/	.
!LO:TX:t=P:problem=kreska pseudotaktowa	!	!	!	!	!	!	!	!
2F/	de-	.	.	.	1c/	de-	1f\	.
=6-	=6-	=6-	=6-	=6-	=6-	=6-	=6-	=6-
!	!	!LO:TX:t=P:problem=kreska pseudotaktowa	!	!	!	!	!	!
1B-	.	1r	.	.	.	.	.	.
.	.	.	.	.	1d	.	4e/	.
!	!	!	!	!	!	!	!LO:TX:t=P:problem=kreska pseudotaktowa	!
.	.	.	.	.	.	.	4d/	.
!	!	!LO:TX:t=P:problem=inną ręką nad tekstem dopisany drugi wers	!	!	!	!	!	!
1A	.	1g	qui	a-	.	.	1e	.
*	*	*	*	*	*custos:d	*	*	*
!	!	!	!	!	!LO:TX:t=P:problem=kreska pseudotaktowa	!	!	!
.	.	.	.	.	2c/	.	.	.
!	!	!	!	!	!LO:LB:g=original	!	!	!
=7-	=7-	=7-	=7-	=7-	=7-	=7-	=7-	=7-
*	*	*	*	*	*xywh-#233:5864,2777,4302,1084	*	*	*
!LO:TX:t=P:problem=kreska pseudotaktowa	!	!	!	!	!LO:TX:t=P:problem=kreska pseudotaktowa	!	!	!
1D	-i	2.f\	.	-gnus	1d	-i	2.d/	.
*	*	*	*	*	*	*Xij	*	*
!	!	!LO:TX:t=P:problem=kreska pseudotaktowa	!	!	!	!	!LO:TX:t=P:problem=kreska pseudotaktowa	!
.	.	4g\	tol-	.	.	.	4e/	.
*	*	*custos:b-	*	*	*	*	*custos:g	*
!LO:TX:a:t=7.	!	!	!	!	!	!	!	!
1r	.	2a\	.	.	1r	.	2f\	.
*	*	*xywh-#429:5818,2786,4226,955	*	*	*	*	*xywh-#42:1284,2088,4239,893	*
!	!	!LO:LB:g=original	!	!	!	!	!LO:LB:g=original	!
!	!	!LO:TX:t=P:problem=kreska pseudotaktowa	!	!	!	!	!	!
.	.	2b-\	-lis	.	.	.	2.g\	.
=8-	=8-	=8-	=8-	=8-	=8-	=8-	=8-	=8-
00r	.	1a	pec-	de-	1d	qui	.	.
.	.	.	.	.	.	.	4f\	.
!	!	!	!	!	!	!	!LO:TX:t=P:problem=kreska pseudotaktowa	!
.	.	.	.	.	.	.	2f\	.
!	!	!LO:TX:t=P:problem=kreska pseudotaktowa	!	!	!LO:TX:t=P:problem=kreska pseudotaktowa	!	!	!
.	.	1g	.	-i	1G	.	1b-	.
=9-	=9-	=9-	=9-	=9-	=9-	=9-	=9-	=9-
!	!	!	!	!	!	!	!LO:TX:t=P:problem=kreska pseudotaktowa	!
.	.	2.f\	-ca-	.	2.d/	tol-	00a	.
!	!	!LO:TX:t=P:problem=kreska pseudotaktowa	!	!	!	!	!	!
.	.	4e/	-ta	.	4c/	-lis	.	.
.	.	4d/	mun-	.	4d/	.	.	.
.	.	4c/	.	.	4e/	.	.	.
!	!	!LO:TX:t=P:problem=kreska pseudotaktowa	!	!	!LO:TX:t=P:problem=kreska pseudotaktowa	!	!	!
.	.	2d/	.	.	2f\	lis	.	.
=10-	=10-	=10-	=10-	=10-	=10-	=10-	=10-	=10-
*custos:A	*	*	*	*	*	*	*	*
!LO:TX:t=P:problem=kreska pseudotaktowa	!	!	!	!	!	!	!	!
0r	.	2c/	.	.	2e/	.	.	.
.	.	2.d/	.	.	2.f/	pec-	.	.
.	.	4e/	.	.	4e/	-ca-	.	.
.	.	4f\	.	.	1d/	-ta	.	.
!	!	!LO:TX:t=P:problem=kreska pseudotaktowa	!	!	!	!	!	!
.	.	4d/	.	.	.	.	.	.
=11-	=11-	=11-	=11-	=11-	=11-	=11-	=11-	=11-
*xywh-#600:5518,2855,4761,1451	*	*	*	*	*	*	*	*
1A	a-	1e	.	.	.	.	2r	.
*	*	*	*	*	*	*	*	*ij
!	!	!	!	!	!LO:TX:t=P:problem=kreska pseudotaktowa	!	!	!
.	.	.	.	.	2c/	m(un)-	2.a\	A-
!LO:TX:t=P:problem=kreska pseudotaktowa	!	!	!	!	!	!	!	!
1D	-gnus	2d/	-di,	.	1d	-di,	.	.
.	.	.	.	.	.	.	4g\	.
!	!	!LO:TX:t=P:problem=kreska pseudotaktowa	!	!	!	!	!LO:TX:t=P:problem=kreska pseudotaktowa	!
.	.	1.a\	mi-	qui	.	.	2f\	.
=12-	=12-	=12-	=12-	=12-	=12-	=12-	=12-	=12-
!	!	!	!	!	!LO:TX:t=P:problem=kreska pseudotaktowa	!	!	!
1.A	.	.	.	.	00r	.	2e/	.
.	.	.	.	.	.	.	2f\	.
.	.	1a	-ſe-	tol-	.	.	2e/	.
!LO:TX:t=P:problem=kreska pseudotaktowa	!	!	!	!	!	!	!LO:TX:t=P:problem=kreska pseudotaktowa	!
2F/	de-	.	.	.	.	.	2f\	.
=13-	=13-	=13-	=13-	=13-	=13-	=13-	=13-	=13-
2B-\	.	2f\	-re-	-lis	.	.	2d/	.
1A	.	1a	-re	pec-	.	.	4c/	.
!	!	!	!	!	!	!	!LO:TX:t=P:problem=kreska pseudotaktowa	!
.	.	.	.	.	.	.	4d/	.
.	.	.	.	.	.	.	4e/	.
.	.	.	.	.	.	.	4f/	.
*	*	*custos:a	*	*	*	*	*	*
!LO:TX:t=P:problem=kreska pseudotaktowa	!	!LO:TX:t=P:problem=kreska pseudotaktowa	!	!	!	!	!	!
2G/	.	2b-\	no-	-ca	.	.	4g\	.
!	!	!	!	!	!	!	!LO:TX:t=P:problem=kreska pseudotaktowa	!
.	.	.	.	.	.	.	4e/	.
!	!	!LO:PB:g=original	!	!	!	!	!	!
=14-	=14-	=14-	=14-	=14-	=14-	=14-	=14-	=14-
*	*	*xywh-#430:1035,582,4373,936	*	*	*	*	*	*
*	*	*	*	*	*	*	*custos:d	*
2F/	.	2a\	.	.	1d	qui	2f\	.
*	*	*	*	*	*	*	*xywh-#42:1272,2847,4291,969	*
!	!	!	!	!	!	!	!LO:LB:g=original	!
2G/	.	4b-\	.	.	.	.	1d	.
!	!	!LO:TX:t=P:problem=kreska pseudotaktowa	!	!	!	!	!	!
.	.	4a\	.	.	.	.	.	.
*	*	*	*	*	*custos:d	*	*	*
!	!	!	!	!	!LO:TX:t=P:problem=kreska pseudotaktowa	!	!	!
1Eny	.	4g\	.	mun-	1G	tol-	.	.
.	.	4f\	.	.	.	.	.	.
!	!	!	!	!	!	!	!LO:TX:t=P:problem=kreska pseudotaktowa	!
.	.	2g\	.	.	.	.	2c/	.
!	!	!	!	!	!LO:PB:g=original	!	!	!
=15-	=15-	=15-	=15-	=15-	=15-	=15-	=15-	=15-
*	*	*	*	*	*xywh-#234:1106,532,4340,970	*	*	*
!LO:TX:t=P:problem=kreska pseudotaktowa	!	!	!	!	!	!	!	!
0D	-i	1.f	.	.	2.d/	-lis	2A/	.
.	.	.	.	.	.	.	2B-/	.
!	!	!	!	!	!LO:TX:t=P:problem=kreska pseudotaktowa	!	!	!
.	.	.	.	.	4c/	.	.	.
.	.	.	.	.	4d/	.	2A/	.
.	.	.	.	.	4e/	.	.	.
!	!	!LO:TX:t=P:problem=kreska pseudotaktowa	!	!	!	!	!	!
.	.	2d/	.	.	4f\	.	1d/	.
!	!	!	!	!	!LO:TX:t=P:problem=kreska pseudotaktowa	!	!	!
.	.	.	.	.	4g\	.	.	.
=16-	=16-	=16-	=16-	=16-	=16-	=16-	=16-	=16-
0r	.	1e	-bis,	-di	4a\	.	.	.
.	.	.	.	.	4g\	.	.	.
!	!	!	!	!	!LO:TX:t=P:problem=kreska pseudotaktowa	!	!LO:TX:t=P:problem=kreska pseudotaktowa	!
.	.	.	.	.	2a\	.	2c/	-gnus
.	.	2r	.	.	2f/	pec-	1.d	de-
.	.	1f\	mi-	.	1b-\	-ca-	.	.
=17-	=17-	=17-	=17-	=17-	=17-	=17-	=17-	=17-
!LO:TX:t=P:problem=kreska pseudotaktowa	!	!	!	!	!	!	!	!
1r	.	.	.	.	.	.	.	.
!	!	!LO:TX:t=P:problem=kreska pseudotaktowa	!	!	!	!	!	!
.	.	2e/	.	.	1a	-ta	2c/	.
2r	.	2d/	-ſe-	.	.	.	1B-	.
*	*ij	*	*	*	*	*	*	*
!	!	!	!	!	!LO:TX:t=P:problem=kreska pseudotaktowa	!	!	!
1G/	a-	2.d/	-re-	.	2g\	m(un)-	.	.
=18-	=18-	=18-	=18-	=18-	=18-	=18-	=18-	=18-
!	!	!	!	!	!	!	!LO:TX:t=P:problem=kreska pseudotaktowa	!
.	.	.	.	.	1a	-di,	1A	-i
*	*	*	*	*	*	*	*	*Xij
.	.	4e/	.	.	.	.	.	.
!LO:TX:t=P:problem=kreska pseudotaktowa	!	!LO:TX:t=P:problem=kreska pseudotaktowa	!	!	!	!	!	!
2F/	-gnus	2f/	.	.	.	.	.	.
1.G	de-	2B-/	-re	.	1.b-	.	1r	.
.	.	2.e-X/	no-	.	.	.	.	.
=19-	=19-	=19-	=19-	=19-	=19-	=19-	=19-	=19-
.	.	.	.	.	.	.	1d	qui
.	.	4d/	.	.	.	.	.	.
*	*	*custos:c	*	*	*	*	*	*
!	!	!LO:TX:t=P:problem=po tej nucie dziesięć wykreślonych nut	!	!	!	!	!	!
!LO:TX:t=P:problem=kreska pseudotaktowa	!	!	!	!	!LO:TX:t=P:problem=kreska pseudotaktowa	!	!	!
2F/	.	1d	.	.	2a\	qui	.	.
!	!	!	!	!	!	!	!LO:TX:t=P:problem=kreska pseudotaktowa	!
1E	.	.	.	.	1g	.	1G	tol-
*	*	*xywh-#430:1098,1330,4299,879	*	*	*	*	*	*
!	!	!LO:LB:g=original	!	!	!	!	!	!
!	!	!LO:TX:t=P:problem=kreska pseudotaktowa	!	!	!	!	!	!
.	.	2c/	.	.	.	.	.	.
=20-	=20-	=20-	=20-	=20-	=20-	=20-	=20-	=20-
!LO:TX:t=P:problem=kreska pseudotaktowa	!	!	!	!	!	!	!	!
0D	-i	2A/	.	.	2.f\	tol-	2.d/	-lis
*	*Xij	*	*	*	*	*	*	*
.	.	2B-/	.	.	.	.	.	.
!	!	!	!	!	!LO:TX:t=P:problem=kreska pseudotaktowa	!	!	!
.	.	.	.	.	4g\	-lis	4e/	.
*	*	*	*	*	*custos:d	*	*	*
!	!	!LO:TX:t=P:problem=kreska pseudotaktowa	!	!	!	!	!	!
.	.	1A	-bis,	.	2a\	.	2.f\	.
*	*	*	*	*	*xywh-#234:1140,1374,4288,857	*	*	*
!	!	!	!	!	!LO:LB:g=original	!	!	!
.	.	.	.	.	4d/	no	.	.
!	!	!	!	!	!LO:TX:t=P:problem=kreska pseudotaktowa	!	!LO:TX:t=P:problem=kreska pseudotaktowa	!
.	.	.	.	.	4e/	.	4g\	.
=21-	=21-	=21-	=21-	=21-	=21-	=21-	=21-	=21-
*	*	*	*	*	*	*	*custos:d	*
00r	.	0r	.	.	4f\	.	2a\	.
.	.	.	.	.	4g\	.	.	.
*	*	*	*	*	*	*	*xywh-#42:5821,547,4414,934	*
!	!	!	!	!	!	!	!LO:PB:g=original	!
.	.	.	.	.	2a\	.	1d	.
.	.	.	.	.	2f/	.	.	.
!	!	!	!	!	!LO:TX:t=P:problem=kreska pseudotaktowa	!	!LO:TX:t=P:problem=kreska pseudotaktowa, między nutą a kropką	!
.	.	.	.	.	2d/	.	2.a\	.
=22-	=22-	=22-	=22-	=22-	=22-	=22-	=22-	=22-
.	.	1d	qui	mi-	1a	pec-	.	.
.	.	.	.	.	.	.	4g\	pec-
.	.	.	.	.	.	.	4a\	-ca-
.	.	.	.	.	.	.	4f\	-ta
*	*	*custos:d	*	*	*	*	*	*
!	!	!LO:TX:t=P:problem=kreska pseudotaktowa	!	!	!	!	!	!
.	.	1G	tol-	-se-	2b-\	-ca-	2g\	.
!	!	!	!	!	!LO:TX:t=P:problem=kreska pseudotaktowa	!	!LO:TX:t=P:problem=kreska pseudotaktowa	!
.	.	.	.	.	2g\	-ta	2d/	.
!	!	!LO:LB:g=original	!	!	!	!	!	!
=23-	=23-	=23-	=23-	=23-	=23-	=23-	=23-	=23-
*	*	*xywh-#430:1183,2067,4162,924	*	*	*	*	*	*
!LO:TX:t=P:problem=kreska pseudotaktowa	!	!	!	!	!	!	!	!
1r	.	1.d	-lis	-re-	1a	m(un)-	1f	.
*custos:D	*	*	*	*	*	*	*	*
!LO:TX:t=P:problem=kreska pseudotaktowa	!	!	!	!	!LO:TX:t=P:problem=kreska pseudotaktowa	!	!	!
1A	qui-	.	.	.	1a	-di,	1e	mun-
!	!	!LO:TX:t=P:problem=kreska pseudotaktowa	!	!	!	!	!	!
.	.	2c/	.	-ri	.	.	.	.
!LO:PB:g=original	!	!	!	!	!	!	!	!
=24-	=24-	=24-	=24-	=24-	=24-	=24-	=24-	=24-
*xywh-#601:973,602,4374,915	*	*	*	*	*	*	*	*
!	!	!	!	!	!	!	!LO:TX:t=P:problem=kreska pseudotaktowa	!
1D	-tol-	2d/	pec-	.	2r	.	1d	-di,
.	.	2.f/	-ca-	.	2A/	mi-	.	.
1.A	-lis	.	.	.	1.c	-ſe-	0r	.
.	.	4eny/	-ta	.	.	.	.	.
.	.	4c/	.	.	.	.	.	.
!	!	!LO:TX:t=P:problem=kreska pseudotaktowa	!	!	!	!	!	!
.	.	4d/	.	.	.	.	.	.
=25-	=25-	=25-	=25-	=25-	=25-	=25-	=25-	=25-
.	.	4e/	mun-	.	.	.	.	.
.	.	4f/	.	.	.	.	.	.
!LO:TX:t=P:problem=kreska pseudotaktowa	!	!LO:TX:t=P:problem=kreska pseudotaktowa	!	!	!LO:TX:t=P:problem=kreska pseudotaktowa	!	!	!
2G/	pec-	2e/	-di	.	2B-/	-re-	.	.
!	!	!	!	!	!	!	!LO:TX:t=P:problem=kreska pseudotaktowa	!
2F/	-ca-	2f/	.	.	2A/	-re	1r	.
2G/	-ta-	1d/	.	.	2B-/	no-	.	.
=26-	=26-	=26-	=26-	=26-	=26-	=26-	=26-	=26-
!	!	!	!	!	!LO:TX:t=P:problem=kreska pseudotaktowa	!	!	!
1E	-m(un)-	.	.	.	1G	-bis,	2r	.
!	!	!LO:TX:t=P:problem=kreska pseudotaktowa	!	!	!	!	!	!
.	.	2c/	.	no-	.	.	1g	.
*	*	*	*	*	*custos:d	*	*	*
!LO:TX:t=P:problem=kreska pseudotaktowa	!	!	!	!	!	!	!	!
1D	-di,	2d/	.	-bis	2r	.	.	.
*	*	*	*	*	*xywh-#234:1146,2109,4322,908	*	*	*
!	!	!	!	!	!LO:LB:g=original	!	!	!
*	*	*	*	*	*	*ij	*	*
!	!	!LO:TX:t=P:problem=kreska pseudotaktowa	!	!	!	!	!LO:TX:t=P:problem=kreska pseudotaktowa	!
.	.	2A/	mi-	.	2.d/	mi-	2f\	mi-
=27-	=27-	=27-	=27-	=27-	=27-	=27-	=27-	=27-
2r	.	2B-/	-ſe-	.	.	.	1g	-ſe-
.	.	.	.	.	4c/	-ſe-	.	.
!	!	!	!	!	!LO:TX:t=P:problem=kreska pseudotaktowa	!	!	!
1G	mi-	2.d/	-re-	.	2B-/	-re-	.	.
!	!	!	!	!	!	!	!LO:TX:t=P:problem=kreska pseudotaktowa	!
.	.	.	.	.	1A	-re	1a	-re-
.	.	4e/	-re	.	.	.	.	.
!LO:TX:t=P:problem=kreska pseudotaktowa	!	!LO:TX:t=P:problem=kreska pseudotaktowa	!	!	!	!	!	!
2F/	-ſe-	2f\	.	.	.	.	.	.
=28-	=28-	=28-	=28-	=28-	=28-	=28-	=28-	=28-
*	*	*custos:e	*	*	*	*	*	*
!	!	!	!	!	!LO:TX:t=P:problem=kreska pseudotaktowa	!	!	!
1.G	-re-	2B-/	.	.	0.G	no-	1.b-	-re
*	*	*xywh-#430:1218,2832,4208,919	*	*	*	*	*	*
!	!	!LO:LB:g=original	!	!	!	!	!	!
.	.	2.e-X/	no-	.	.	.	.	.
.	.	4d/	.	.	.	.	.	.
2F/	-re	1d/	.	.	.	.	2a\	no-
=29-	=29-	=29-	=29-	=29-	=29-	=29-	=29-	=29-
1E	no-	.	.	.	.	.	1g	-bis
!	!	!LO:TX:t=P:problem=kreska pseudotaktowa	!	!	!	!	!	!
.	.	2c/	.	.	.	.	.	.
!LO:TX:t=P:problem=kreska pseudotaktowa	!	!	!	!	!	!	!LO:TX:t=P:problem=kreska pseudotaktowa	!
0D	-bis,	0d	-bis,	.	2A/	.	0.f	.
.	.	.	.	.	4B-/	.	.	.
.	.	.	.	.	4A/	.	.	.
=30-	=30-	=30-	=30-	=30-	=30-	=30-	=30-	=30-
.	.	.	.	.	2B-/	.	.	.
.	.	.	.	.	2A/	.	.	.
!	!	!LO:TX:t=P:problem=kreska pseudotaktowa	!	!	!LO:TX:t=P:problem=kreska pseudotaktowa	!	!	!
1r	.	1r	.	.	1A	-bis	.	.
*	*	*	*	*	*	*Xij	*	*
=31-	=31-	=31-	=31-	=31-	=31-	=31-	=31-	=31-
*	*	*	*ij	*	*	*	*	*
*	*	*	*	*	*	*	*custos:f	*
0B-	mi-	0d	mi-	mi-	00r	.	1r	.
*	*	*	*	*	*	*	*xywh-#42:5862,1329,4332,910	*
!	!	!	!	!	!	!	!LO:LB:g=original	!
.	.	.	.	.	.	.	0f	mi  -
=32-	=32-	=32-	=32-	=32-	=32-	=32-	=32-	=32-
!LO:TX:t=P:problem=kreska pseudotaktowa	!	!LO:TX:t=P:problem=kreska pseudotaktowa	!	!	!	!	!	!
1A	-ſe-	1c	-ſe-	-ſe	.	.	.	.
*custos:F	*	*	*	*	*	*	*	*
!	!	!	!	!	!	!	!LO:TX:t=P:problem=kreska pseudotaktowa	!
0G	-re-	1.B-	-re-	.	.	.	1e	-ſe-
=33-	=33-	=33-	=33-	=33-	=33-	=33-	=33-	=33-
.	.	.	.	.	0r	.	2.d/	-re-
.	.	4A/	.	.	.	.	.	.
!	!	!LO:TX:t=P:problem=kreska pseudotaktowa	!	!	!	!	!	!
.	.	4G/	.	.	.	.	4e/	-re
*xywh-#601:1041,1371,3318,887	*	*	*	*	*	*	*	*
!LO:LB:g=original	!	!	!	!	!	!	!	!
2F/	-re	2A/	.	.	.	.	2f\	.
!LO:TX:t=P:problem=kreska pseudotaktowa, między nutą a kropką	!	!	!	!	!	!	!LO:TX:t=P:problem=kreska pseudotaktowa, między nutą a kropką	!
2.G/	no-	2B-/	.	.	.	.	2.e/	no-
=34-	=34-	=34-	=34-	=34-	=34-	=34-	=34-	=34-
!	!	!	!	!	!LO:TX:t=P:problem=kreska pseudotaktowa	!	!	!
.	.	0G	.	.	0g	mi-	.	.
4F/	.	.	.	.	.	.	4d/	.
4E/	.	.	.	.	.	.	1d	.
4D/	.	.	.	.	.	.	.	.
1E	.	.	.	.	.	.	.	.
.	.	.	.	.	.	.	2c/	.
=35-	=35-	=35-	=35-	=35-	=35-	=35-	=35-	=35-
!LO:TX:t=P:problem=kreska pseudotaktowa	!	!LO:TX:t=P:problem=kreska pseudotaktowa	!	!	!	!	!LO:TX:t=P:problem=kreska pseudotaktowa	!
1D	-bis,	1A	-re	.	1.f	-ſe-	1d	-bis
1.B-	.	1d	no-	mi-	.	.	1r	.
!	!	!	!	!	!LO:TX:t=P:problem=kreska pseudotaktowa	!	!	!
.	.	.	.	.	2e/	-re-	.	.
=36-	=36-	=36-	=36-	=36-	=36-	=36-	=36-	=36-
.	.	2B-/	.	-ſer-	2d/	-re	1f	mi-
!	!	!LO:TX:t=P:problem=kreska pseudotaktowa	!	!	!	!	!	!
2A\	mi-	2c/	.	.	2c/	.	.	.
*	*	*custos:d	*	*	*	*	*	*
!	!	!	!	!	!	!	!LO:TX:t=P:problem=kreska pseudotaktowa	!
2G/	-ſe-	2e-X/	.	.	2B-/	.	1g	-ſe-
*	*	*xywh-#430:5740,582,4556,970	*	*	*	*	*	*
!	!	!LO:PB:g=original	!	!	!	!	!	!
!LO:TX:t=P:problem=kreska pseudotaktowa	!	!	!	!	!LO:TX:t=P:problem=kreska pseudotaktowa	!	!	!
2F/	-re-	1d/	.	-no-	2A/	no-	.	.
=37-	=37-	=37-	=37-	=37-	=37-	=37-	=37-	=37-
*	*	*	*	*	*custos:A	*	*	*
0E	-re	.	.	.	0G	-bis,	0g	-re-
.	.	4c/	.	.	.	.	.	.
!	!	!LO:TX:t=P:problem=kreska pseudotaktowa	!	!	!	!	!	!
.	.	4B-/	.	.	.	.	.	.
.	.	1c	.	.	.	.	.	.
!	!	!	!	!	!LO:LB:g=original	!	!	!
=38-	=38-	=38-	=38-	=38-	=38-	=38-	=38-	=38-
*	*	*	*	*	*xywh-#234:1168,2826,4266,1339	*	*	*
00D	no-	2d/	.	-bis	2A/	mi-	2f\	-re
!	!	!LO:TX:t=P:problem=kreska pseudotaktowa	!	!	!LO:TX:t=P:problem=kreska pseudotaktowa	!	!	!
.	.	2B-/	.	mi-	2f\	-ſe-	4d/	no-
!	!	!	!	!	!	!	!LO:TX:t=P:problem=kreska pseudotaktowa	!
.	.	.	.	.	.	.	4e/	.
.	.	2A/	-bis	-ſe-	2d/	-re-	4f\	.
*	*	*	*Xij	*	*	*	*	*
*	*	*	*	*	*	*	*custos:a	*
.	.	.	.	.	.	.	4g\	.
*	*	*	*	*	*	*	*xywh-#42:5897,2059,1658,922	*
!	!	!	!	!	!	!	!LO:LB:g=original	!
.	.	2.d/	no-	-re-	2.f\	-re	1a\	.
=39-	=39-	=39-	=39-	=39-	=39-	=39-	=39-	=39-
.	.	.	.	.	.	.	.	.
.	.	4c/	.	-re	4e\	no-	.	.
.	.	2B-/	.	.	4d/	.	1g	.
!	!	!	!	!	!LO:TX:t=P:problem=kreska pseudotaktowa	!	!	!
.	.	.	.	.	4c/	.	.	.
.	.	1A	.	no-	1d	.	.	.
.	.	.	.	.	.	.	2f\	.
=40-	=40-	=40-	=40-	=40-	=40-	=40-	=40-	=40-
!	!	!	!	!	!	!	!LO:TX:t=P:problem=na ostatniej pięciolinii tej strony wpisany krótki fragment nut, zamazany. 	!
0G\l	-bis,	0Gl	-bis,	-bis	0B-l	-bis,	0g;l	-bis
!LO:LB:g=original	!	!LO:LB:g=original	!	!	!LO:PB:g=original	!	!	!
*clefC5	*	*	*	*	*	*	*	*
=41||-	=41||-	=41||-	=41||-	=41||-	=41||-	=41||-	=41||-	=41||-
*xywh-#600:1028,2081,4279,954	*	*xywh-#429:1163,2050,4197,966	*	*	*xywh-#233:1266,2046,4251,952	*	*	*
!LO:TX:t=P:problem=w rękopisie wpisane tylko jedno Agnus, a tekst drugiego podpisany pod wcześniejszym Benedictus	!	!LO:TX:t=P:problem=w rękopisie wpisane tylko jedno Agnus, a tekst drugiego podpisany pod wcześniejszym Benedictus	!	!	!LO:TX:t=P:problem=w rękopisie wpisane tylko jedno Agnus, a tekst drugiego podpisany pod wcześniejszym Benedictus	!	!	!
0r	.	00r	.	.	1.d	A-	0ryy	.
!	!	!	!	!	!LO:TX:t=P:problem=kreska pseudotaktowa	!	!	!
.	.	.	.	.	2d/	-gnus	.	.
=42-	=42-	=42-	=42-	=42-	=42-	=42-	=42-	=42-
!LO:TX:t=P:problem=kreska pseudotaktowa	!	!	!	!	!	!	!	!
1r	.	.	.	.	2.f\	de-	0ryy	.
!	!	!	!	!	!LO:TX:t=P:problem=kreska pseudotaktowa	!	!	!
.	.	.	.	.	4e/	.	.	.
1.G	A-	.	.	.	4d/	.	.	.
.	.	.	.	.	4c/	.	.	.
.	.	.	.	.	2.d/	.	.	.
=43-	=43-	=43-	=43-	=43-	=43-	=43-	=43-	=43-
.	.	00d\	A-	.	.	.	0ryy	.
.	.	.	.	.	4c/	.	.	.
!LO:TX:t=P:problem=kreska pseudotaktowa	!	!	!	!	!	!	!	!
2G\	-gnus	.	.	.	4B-/	.	.	.
!	!	!	!	!	!LO:TX:t=P:problem=kreska pseudotaktowa	!	!	!
.	.	.	.	.	4A/	.	.	.
2.B-\	de-	.	.	.	2.G/	.	.	.
!	!	!	!	!	!LO:TX:t=P:problem=kreska pseudotaktowa	!	!	!
4A\	.	.	.	.	4A/	.	.	.
=44-	=44-	=44-	=44-	=44-	=44-	=44-	=44-	=44-
4G\	.	.	.	.	4B-/	.	0ryy	.
*custos:G	*	*	*	*	*custos:B	*	*	*
4F/	.	.	.	.	4A/	.	.	.
*xywh-#600:1023,2862,4318,1336	*	*	*	*	*xywh-#233:1283,2777,4245,1089	*	*	*
!LO:LB:g=original	!	!	!	!	!LO:LB:g=original	!	!	!
*clefC4	*	*	*	*	*	*	*	*
1G	.	.	.	.	1B-	.	.	.
4F/	.	.	.	.	4A/	.	.	.
!LO:TX:t=P:problem=kreska pseudotaktowa	!	!	!	!	!LO:TX:t=P:problem=kreska pseudotaktowa	!	!	!
4E/	.	.	.	.	4G/	.	.	.
=45-	=45-	=45-	=45-	=45-	=45-	=45-	=45-	=45-
!	!	!LO:TX:t=P:problem=kreska pseudotaktowa	!	!	!	!	!	!
2F/	.	1d	-gnus	.	2A/	.	0ryy	.
2G/	.	.	.	.	2B-/	.	.	.
!LO:TX:t=P:problem=kreska pseudotaktowa	!	!	!	!	!LO:TX:t=P:problem=kreska pseudotaktowa	!	!	!
0D	-i	2.f\	De-	.	1A	-i	.	.
.	.	4eny/	.	.	.	.	.	.
=46-	=46-	=46-	=46-	=46-	=46-	=46-	=46-	=46-
.	.	4d/	.	.	1a	.	0ryy	.
.	.	4c/	.	.	.	.	.	.
!	!	!LO:TX:t=P:problem=kreska pseudotaktowa, między nutą a kropką	!	!	!	!	!	!
.	.	2.d/	.	.	.	.	.	.
2r	.	.	.	.	1.f	qui	.	.
.	.	4c/	.	.	.	.	.	.
2.B-\	qui	2.d/	.	.	.	.	.	.
=47-	=47-	=47-	=47-	=47-	=47-	=47-	=47-	=47-
.	.	.	.	.	.	.	0ryy	.
4A\	.	4c/	.	.	.	.	.	.
!LO:TX:t=P:problem=kreska pseudotaktowa	!	!LO:TX:t=P:problem=kreska pseudotaktowa	!	!	!LO:TX:t=P:problem=kreska pseudotaktowa	!	!	!
2G/	.	2B-/	.	.	2g\	tol-	.	.
2F/	.	2A/	.	.	2a\	-lis	.	.
2G/	.	2B-/	.	.	2d/	.	.	.
=48-	=48-	=48-	=48-	=48-	=48-	=48-	=48-	=48-
2D/	tol-	2A/	.	.	2a\	pec-	0ryy	.
!LO:TX:t=P:problem=kreska pseudotaktowa	!	!LO:TX:t=P:problem=kreska pseudotaktowa	!	!	!	!	!	!
2B-\	-lis	2d/	.	.	1f	-ca-	.	.
2A\	.	2c/	.	.	.	.	.	.
!	!	!	!	!	!LO:TX:t=P:problem=kreska pseudotaktowa	!	!	!
2.B-\	-ca-	2.d/	.	.	2f\	-ta	.	.
=49-	=49-	=49-	=49-	=49-	=49-	=49-	=49-	=49-
.	.	.	.	.	1.b-	.	0ryy	.
4A/	-ta	4c/	.	.	.	.	.	.
4G/	.	1f	.	.	.	.	.	.
!LO:TX:t=P:problem=kreska pseudotaktowa	!	!	!	!	!	!	!	!
4F/	.	.	.	.	.	.	.	.
1G	.	.	.	.	.	.	.	.
*	*	*custos:f	*	*	*	*	*	*
!	!	!LO:TX:t=P:problem=kreska pseudotaktowa	!	!	!	!	!	!
.	.	2e/	.	.	4a\	mun-	.	.
.	.	.	.	.	4g\	.	.	.
!	!	!LO:LB:g=original	!	!	!	!	!	!
=50-	=50-	=50-	=50-	=50-	=50-	=50-	=50-	=50-
*	*	*xywh-#429:1140,2818,4214,1057	*	*	*	*	*	*
!	!	!	!	!	!LO:TX:t=P:problem=kreska pseudotaktowa	!	!	!
4F/	mu(n)-	1f	.	.	00a	-di,	0ryy	.
4G/	.	.	.	.	.	.	.	.
4A/	.	.	.	.	.	.	.	.
*custos:c	*	*	*	*	*	*	*	*
!LO:TX:t=P:problem=kreska pseudotaktowa	!	!	!	!	!	!	!	!
4B-/	.	.	.	.	.	.	.	.
*xywh-#600:5751,632,4273,943	*	*	*	*	*	*	*	*
!LO:PB:g=original	!	!	!	!	!	!	!	!
2c\	.	2e\	-i	.	.	.	.	.
2.d\	.	2.f\	qui	.	.	.	.	.
=51-	=51-	=51-	=51-	=51-	=51-	=51-	=51-	=51-
.	.	.	.	.	.	.	0ryy	.
4c\	.	4e/	.	.	.	.	.	.
!LO:TX:t=P:problem=kreska pseudotaktowa	!	!LO:TX:t=P:problem=kreska pseudotaktowa	!	!	!	!	!	!
2d\	.	2f\	.	.	.	.	.	.
2A/	.	2e/	.	.	.	.	.	.
2.d\	.	2.f\	tol-	.	.	.	.	.
=52-	=52-	=52-	=52-	=52-	=52-	=52-	=52-	=52-
.	.	.	.	.	1r	.	0ryy	.
4c\	.	4e/	.	.	.	.	.	.
!LO:TX:t=P:problem=kreska pseudotaktowa	!	!	!	!	!	!	!	!
2A/	.	2.a\	.	.	.	.	.	.
*	*	*	*	*	*	*ij	*	*
*	*	*	*	*	*custos:e	*	*	*
!	!	!	!	!	!LO:TX:t=P:problem=kreska pseudotaktowa	!	!	!
1B-	.	.	.	.	1d	qui	.	.
.	.	8g\L	.	.	.	.	.	.
.	.	8f\J	.	.	.	.	.	.
!	!	!LO:TX:t=P:problem=kreska pseudotaktowa	!	!	!	!	!	!
.	.	2g\	.	.	.	.	.	.
!	!	!	!	!	!LO:LB:g=original	!	!	!
=53-	=53-	=53-	=53-	=53-	=53-	=53-	=53-	=53-
*	*	*	*	*	*xywh-#233:5905,545,4319,1055	*	*	*
!LO:TX:t=P:problem=kreska pseudotaktowa	!	!	!	!	!	!	!	!
1A	-di,	1a	-lis	.	2e/	tol-	0ryy	.
!	!	!	!	!	!LO:TX:t=P:problem=kreska pseudotaktowa	!	!	!
.	.	.	.	.	2c/	-lis	.	.
1r	.	2b-\	.	.	2d/	pec-	.	.
.	.	1a\	.	.	1f\	-ca-	.	.
=54-	=54-	=54-	=54-	=54-	=54-	=54-	=54-	=54-
0r	.	.	.	.	.	.	0ryy	.
.	.	4g\	.	.	4e/	.	.	.
!	!	!LO:TX:t=P:problem=kreska pseudotaktowa	!	!	!LO:TX:t=P:problem=kreska pseudotaktowa	!	!	!
.	.	4f\	.	.	4d/	.	.	.
.	.	2g\	.	.	2e/	-ta	.	.
.	.	2f\	.	.	1d/	m(un)-	.	.
=55-	=55-	=55-	=55-	=55-	=55-	=55-	=55-	=55-
!LO:TX:t=P:problem=kreska pseudotaktowa	!	!LO:TX:t=P:problem=kreska pseudotaktowa	!	!	!	!	!	!
1A	mi-	1e	.	.	.	.	0ryy	.
.	.	.	.	.	2c/	.	.	.
*	*	*custos:d	*	*	*	*	*	*
!	!	!	!	!	!LO:TX:t=P:problem=kreska pseudotaktowa	!	!	!
2B-/	.	2r	.	.	0d	-di	.	.
*	*	*	*	*	*	*Xij	*	*
*	*	*xywh-#429:5769,577,4464,1074	*	*	*	*	*	*
!	!	!LO:PB:g=original	!	!	!	!	!	!
!LO:TX:t=P:problem=kreska pseudotaktowa	!	!	!	!	!	!	!	!
2G/	-ſe-	2.d/	pec-	.	.	.	.	.
=56-	=56-	=56-	=56-	=56-	=56-	=56-	=56-	=56-
2B-/	-re-	.	.	.	.	.	0ryy	.
.	.	4e/	.	.	.	.	.	.
4A/	-re	4f\	.	.	.	.	.	.
!LO:TX:t=P:problem=kreska pseudotaktowa	!	!LO:TX:t=P:problem=kreska pseudotaktowa	!	!	!	!	!	!
4G/	.	4g\	.	.	.	.	.	.
2F/	.	2a\	.	.	0r	.	.	.
2.G/	no-	2.b-\	.	.	.	.	.	.
=57-	=57-	=57-	=57-	=57-	=57-	=57-	=57-	=57-
.	.	.	.	.	.	.	0ryy	.
4A/	.	4a\	-ca-	.	.	.	.	.
4B-/	.	1g	-ta	.	.	.	.	.
*custos:A	*	*	*	*	*	*	*	*
!LO:TX:t=P:problem=kreska pseudotaktowa	!	!	!	!	!	!	!	!
4G/	.	.	.	.	.	.	.	.
*xywh-#600:5706,1362,4312,943	*	*	*	*	*	*	*	*
!LO:LB:g=original	!	!	!	!	!	!	!	!
2A/	.	.	.	.	1a	mi-	.	.
!	!	!LO:TX:t=P:problem=kreska pseudotaktowa	!	!	!	!	!	!
2A/	.	2f/	m(un)-	.	.	.	.	.
=58-	=58-	=58-	=58-	=58-	=58-	=58-	=58-	=58-
!LO:TX:t=P:problem=kreska pseudotaktowa	!	!	!	!	!	!	!	!
0G	-bis,	1g	-di	.	2b-\	-ſe-	0ryy	.
!	!	!	!	!	!LO:TX:t=P:problem=kreska pseudotaktowa	!	!	!
.	.	.	.	.	2g\	-re-	.	.
.	.	2r	.	.	2.b-\	-re	.	.
*	*	*lig	*ij	*	*	*	*	*
.	.	1d/	pec-	.	.	.	.	.
.	.	.	.	.	8a\L	.	.	.
!	!	!	!	!	!LO:TX:t=P:problem=kreska pseudotaktowa	!	!	!
.	.	.	.	.	8g\J	.	.	.
=59-	=59-	=59-	=59-	=59-	=59-	=59-	=59-	=59-
*	*	*	*	*	*custos:g	*	*	*
0r	.	.	.	.	2f\	.	0ryy	.
*	*	*	*	*	*xywh-#233:5911,1310,4274,1107	*	*	*
!	!	!	!	!	!LO:LB:g=original	!	!	!
*	*	*col	*	*	*	*	*	*
.	.	2.e/	-ca-	.	2.g\	no-	.	.
*	*	*Xlig	*	*	*	*	*	*
.	.	4d/	-ta	.	4a\	.	.	.
*	*	*Xcol	*	*	*	*	*	*
.	.	1g\	m(un)-	.	4b-\	.	.	.
!	!	!	!	!	!LO:TX:t=P:problem=kreska pseudotaktowa	!	!	!
.	.	.	.	.	4g\	.	.	.
=60-	=60-	=60-	=60-	=60-	=60-	=60-	=60-	=60-
1D	mi-	.	.	.	2a\	.	0ryy	.
.	.	2f\	.	.	2a\	.	.	.
!	!	!LO:TX:t=P:problem=kreska pseudotaktowa	!	!	!LO:TX:t=P:problem=kreska pseudotaktowa	!	!	!
2E/	-ſe-	1g	-di	.	1g	.	.	.
*	*	*	*Xij	*	*	*	*	*
!LO:TX:t=P:problem=kreska pseudotaktowa	!	!	!	!	!	!	!	!
2C/	-re-	.	.	.	.	.	.	.
=61-	=61-	=61-	=61-	=61-	=61-	=61-	=61-	=61-
2.G/	-re	2r	.	.	1g	-bis	0ryy	.
.	.	2d/	mi-	.	.	.	.	.
8F/L	.	.	.	.	.	.	.	.
8E/J	.	.	.	.	.	.	.	.
2.D/	no-	2.f/	.	.	1.a	mi-	.	.
!LO:TX:t=P:problem=kreska pseudotaktowa	!	!	!	!	!	!	!	!
4E/	.	8e/L	-ſe-	.	.	.	.	.
!	!	!LO:TX:t=P:problem=kreska pseudotaktowa	!	!	!	!	!	!
.	.	8d/J	-re-	.	.	.	.	.
=62-	=62-	=62-	=62-	=62-	=62-	=62-	=62-	=62-
*	*	*custos:d	*	*	*	*	*	*
2F/	.	2c/	.	.	.	.	0ryy	.
*	*	*xywh-#429:5849,1327,2940,1012	*	*	*	*	*	*
!	!	!LO:LB:g=original	!	!	!	!	!	!
!	!	!LO:TX:t=P:problem=kreska pseudotaktowa	!	!	!LO:TX:t=P:problem=kreska pseudotaktowa	!	!	!
2D/	.	2d/	-re	.	2f\	-ſe-	.	.
2E/	.	2G/	no-	.	2g\	-re-	.	.
!LO:TX:t=P:problem=kreska pseudotaktowa	!	!	!	!	!LO:TX:t=P:problem=kreska pseudotaktowa	!	!	!
2F/	.	2d/	.	.	2a\	-re	.	.
=63-	=63-	=63-	=63-	=63-	=63-	=63-	=63-	=63-
2G/	.	4c/	.	.	2d/	.	0ryy	.
.	.	4B-/	.	.	.	.	.	.
2E/	.	4A/	.	.	1g	.	.	.
!	!	!LO:TX:t=P:problem=kreska pseudotaktowa	!	!	!	!	!	!
.	.	4G/	.	.	.	.	.	.
1D	.	2A/	.	.	.	.	.	.
.	.	2A/	.	.	2f\	no-	.	.
=64-	=64-	=64-	=64-	=64-	=64-	=64-	=64-	=64-
*custos:G	*	*custos:G	*	*	*custos:G	*	*	*
0G\;l	-bis	0Gl	-bis.	.	0gl	-bis.	0ryy	.
=||-	=||-	=||-	=||-	=||-	=||-	=||-	=||-	=||-
*-	*-	*-	*-	*-	*-	*-	*-	*-
!!!system-decoration: [(s1,s2,s3,s4)]
!!!RDF**kern: l = terminal long
!!!ENC: Mateusz Solarz
!!!END: 2022-02-07
!!!ENC: Marta Lawrence
!!!END: 2022-01-12
!!!ENC-iiif: Antoni Szymański
!!!END-iiif: 2022-09-03
!!!YEC: Copyright 2022 Narodowy Instytut Fryderyka Chopina (https://polishscores.org)
!!!YEM: Licence CC BY 4.0 (https://creativecommons.org/licenses/by/4.0)
!!!IIIF: https://repozytorium.nifc.pl/islandora/object/pl-kk%3A1/datastream/IIIF/view
